X: 10962
M: 2/4
L: 1/16
K: F
[|\
gfef d2B2 | gfef c2A2 | fefd cBAG | F2A2F2 H|]
EF |\
a4 gfed | ^cdef g2G2 | g4 fedc | =Bcde f2d2 |\
c6 d=B | c2d=B c2dB | cdB_c ABG"^D.C."A |]


